X: 24199
T: Lord Lovat's Welcome
R: strathspey
M: 4/4
K: Fmajor
|:A<F F>A G>F F<D|C<F F>A c>A f2|A<F F>A G>F G<A|d>c A<c d<e f2:|
c>d f<a g<a f>d|c>d f>g a/g/f/e/ f2|c>d f<a g<a f>e|d>c A>c d<e f2|
c>d f<a g<a f>d|c>df>g a/g/f/e/ f2|c<aa>c g>df>e|d>c A>c d<ef2||

